assets/dashboard/img/top-settings.svg

<svg enable-background="new 86 86 128 128" height="128" viewBox="86 86 128 128" width="128" xmlns="http://www.w3.org/2000/svg"><path d="m121.769 127.514c-4.994 0-9.101 3.978-9.101 8.856v27.262c0 4.877 4.107 8.855 9.101 8.855h3.128c4.994 0 9.103-3.979 9.103-8.855v-27.262c0-4.878-4.109-8.856-9.103-8.856zm53.334 41.514c-4.995 0-9.102 3.976-9.102 8.855v27.261c0 4.88 4.107 8.855 9.102 8.855h3.13c4.994 0 9.104-3.976 9.104-8.855v-27.261c0-4.88-4.109-8.855-9.104-8.855zm0-83.028c-4.995 0-9.102 3.979-9.102 8.855v27.262c0 4.878 4.107 8.857 9.102 8.857h3.13c5.014 0 9.104-3.979 9.104-8.857v-27.262c0-4.876-4.09-8.855-9.104-8.855zm-14.435 19.027h-74.668v6.919h74.668zm53.332 6.919v-6.919h-21.333v6.919zm-106.667 34.596h-21.333v6.917h21.333zm106.667 6.916v-6.917h-74.666v6.917zm-53.332 34.596h-74.668v6.921h74.668zm53.332 6.921v-6.921h-21.333v6.921z" fill="#3e4b5b"/></svg>

<?xml version="1.0" encoding="utf-8"?>

<!DOCTYPE svg PUBLIC "-//W3C//DTD SVG 1.1//EN" "http://www.w3.org/Graphics/SVG/1.1/DTD/svg11.dtd">
<svg version="1.1" id="Layer_1" xmlns="http://www.w3.org/2000/svg" x="0px" y="0px"
	 width="128px" height="128px" viewBox="86 86 128 128" enable-background="new 86 86 128 128" xml:space="preserve">
<path fill="#3E4B5B" d="M121.769,127.514c-4.994,0-9.101,3.978-9.101,8.856v27.262c0,4.877,4.107,8.855,9.101,8.855h3.128
	c4.994,0,9.103-3.979,9.103-8.855V136.37c0-4.878-4.109-8.856-9.103-8.856H121.769z M175.103,169.028
	c-4.995,0-9.102,3.976-9.102,8.855v27.261c0,4.88,4.107,8.855,9.102,8.855h3.13c4.994,0,9.104-3.976,9.104-8.855v-27.261
	c0-4.88-4.109-8.855-9.104-8.855H175.103z M175.103,86c-4.995,0-9.102,3.979-9.102,8.855v27.262c0,4.878,4.107,8.857,9.102,8.857
	h3.13c5.014,0,9.104-3.979,9.104-8.857V94.855c0-4.876-4.09-8.855-9.104-8.855H175.103z M160.668,105.027H86v6.919h74.668V105.027z
	 M214,111.946v-6.919h-21.333v6.919H214z M107.333,146.542H86v6.917h21.333V146.542z M214,153.458v-6.917h-74.666v6.917H214z
	 M160.668,188.054H86v6.921h74.668V188.054z M214,194.975v-6.921h-21.333v6.921H214z"/>
</svg>
